X: 1141
T: SOLDIER'S GLORY
B: Oliver Ditson "The Boston Collection of Instrumental Music" 1910 p.114 #1
F: http://conquest.imslp.info/files/imglnks/usimg/8/8f/IMSLP175643-PMLP309456-bostoncollection00bost_bw.pdf
%: 2012 John Chambers <jc:trillian.mit.edu>
N: It's not clear whether the final repeat means just the 2nd half, or the entire tune.
M: 6/8
L: 1/8
K: D
A |\
f2f fgf | ede d3 | c2d e2c | d2e f2d |\
f2f fgf | ede d3 | g2f e2d | cBc d2 ]
A |\
e2e c2A | d2f e2z | efe c2A | def e2e |\
a2a ^g2g | fef e2c | d2d cfe | dcB "^da Capo"A2 :|
%%begintext align
Forward two and cross over.
Chassez and cross to place.
Balance and turn partners.
%%endtext

%%sep 1 1 500
%%sep 1 1 500
